!!!OTL: Passion
!!!ARE: Europa, Mitteleuropa, Deutschland
!!!SCT: A0545
!!!YEM: Copyright 1995, estate of Helmut Schaffrath.
**kern
*ICvox
*Ivox
*M4/2
*k[f#c#]
*D:
{2d
=1
2a
2a
2a
2a
=2
2.ccn
4b
2a}
{2fn
=3
2a
2ccn
2ccn
2b
=4
1a}
{1d
=5
2a
2a
2a
2a
=6
2.ccn
4b
2a}
{2fn
=7
2a
2ccn
2ccn
2b
=8
1a
2r}
{2a
=9
4a
4b
2ccn
2ccn
4b
4a
=10
1g
2d}
{2cn
=11
2fn
2fn
2g
2e
=12
1.d}
==
!!!AGN: Romanze, Ballade, Lied, religioeses Lied
!! Corner, Gsgb. 1625 No. 200.
!!!ONB: ESAC (Essen Associative Code) Database: ALTDEU
!!!AMT: simple quadruple
!!!AIN: vox
!!!EED: Helmut Schaffrath
!!!EEV: 1.0
*-
